assets/images/line-icon-linkedin.svg

<svg viewBox="0 0 45.959 45.959" xmlns="http://www.w3.org/2000/svg"><path d="m5.392.492c-3.124 0-5.392 2.155-5.392 5.122 0 2.966 2.223 5.119 5.284 5.119 1.588 0 2.956-.515 3.957-1.489.96-.935 1.489-2.224 1.488-3.653-.07-3.002-2.265-5.099-5.337-5.099zm2.455 7.319c-.62.603-1.507.922-2.563.922-1.933 0-3.284-1.282-3.284-3.119 0-1.867 1.363-3.122 3.392-3.122 1.983 0 3.293 1.235 3.338 3.123-.001.862-.314 1.641-.883 2.196zm-6.888 37.656h8.988v-33.045h-8.988zm2-31.045h4.988v29.044h-4.988zm30.689-2c-4.168 0-6.72 1.439-8.198 2.792l-.281-2.792h-10.169v33.044h9.959v-17.367c0-.748.303-2.301.493-2.711 1.203-2.591 2.826-2.591 5.284-2.591 2.831 0 5.223 2.655 5.223 5.797v16.874h10v-18.67c0-9.878-6.382-14.376-12.311-14.376zm10.311 31.045h-6v-14.874c0-4.227-3.308-7.797-7.223-7.797-2.512 0-5.358 0-7.099 3.75-.359.775-.679 2.632-.679 3.553v15.368h-5.958v-29.045h6.36l.408 4.044h1.639l.293-.473c.667-1.074 2.776-3.572 7.948-3.572 4.966 0 10.311 3.872 10.311 12.374z" fill="#4e95a6"/></svg>

<svg xmlns="http://www.w3.org/2000/svg" viewBox="0 0 45.959 45.959">
	<g fill="#4e95a6">
		<path d="M5.392.492C2.268.492 0 2.647 0 5.614c0 2.966 2.223 5.119 5.284 5.119 1.588 0 2.956-.515 3.957-1.489.96-.935 1.489-2.224 1.488-3.653C10.659 2.589 8.464.492 5.392.492zm2.455 7.319c-.62.603-1.507.922-2.563.922C3.351 8.733 2 7.451 2 5.614c0-1.867 1.363-3.122 3.392-3.122 1.983 0 3.293 1.235 3.338 3.123-.001.862-.314 1.641-.883 2.196zM.959 45.467h8.988V12.422H.959v33.045zm2-31.045h4.988v29.044H2.959V14.422zM33.648 12.422c-4.168 0-6.72 1.439-8.198 2.792l-.281-2.792H15v33.044h9.959V28.099c0-.748.303-2.301.493-2.711 1.203-2.591 2.826-2.591 5.284-2.591 2.831 0 5.223 2.655 5.223 5.797v16.874h10v-18.67c0-9.878-6.382-14.376-12.311-14.376zm10.311 31.045h-6V28.593c0-4.227-3.308-7.797-7.223-7.797-2.512 0-5.358 0-7.099 3.75-.359.775-.679 2.632-.679 3.553v15.368H17V14.422h6.36l.408 4.044h1.639l.293-.473c.667-1.074 2.776-3.572 7.948-3.572 4.966 0 10.311 3.872 10.311 12.374v16.672z"/>
	</g>
</svg>
